X:123
T:Peeking Pup Waltz
C:Sharon Shannon
Z:Jerome S. Colburn irtrad-l 2000-3=14
M:3/4
F:http://trillian.mit.edu/~jc/music/abc/Ireland/air/PeekingPupWaltz.abc 2007-01-15 20:58:18 UT
K:G
|:GE|"G"D3 G G2|"Em"G3 F G2|"Am"A3 B c2|"D"d3 d c2|"G"B3 G G2|"Em"B3 G G2|"Am"A3 B c2|"D"A3 G E2|!
"G"D3 G G2|"Em"G3 F G2|"Am"A3 B c2|"D"d3 d c2|"G"B3 G G2|"D"A3 B A2|"G"G6|1G2:|2G2|!
|:de|"G"g3 d d2|"Em"g3 d d2|"Am"c3 B c2|"D"B3 G G2|"G"g3 d d2|"Em"g3 d d2 |"Am"c3 B c2|"D"A4 GE|
"G"D3 G G2|"Em"G3 F G2|"Am"A3 B c2|"D"d3 d c2|"G"B3 G G2|"D"A3 B A2|"G"G6|1G4:|2G4|
